resources/svg/send-o.svg

<svg xmlns="http://www.w3.org/2000/svg" viewBox="0 0 15 15" fill="none"><path d="M14.5 0.5L14.9596 0.69696C15.0401 0.509038 14.9981 0.291016 14.8536 0.146447C14.709 0.00187701 14.491 -0.0401102 14.303 0.0404275L14.5 0.5ZM0.5 6.5L0.30304 6.04043C0.130457 6.11439 0.0138614 6.27881 0.00114754 6.46614C-0.0115663 6.65348 0.0817453 6.83214 0.242752 6.92875L0.5 6.5ZM8.5 14.5L8.07125 14.7572C8.16786 14.9183 8.34652 15.0116 8.53386 14.9989C8.72119 14.9861 8.88561 14.8695 8.95957 14.697L8.5 14.5ZM14.303 0.0404275L0.30304 6.04043L0.69696 6.95957L14.697 0.959573L14.303 0.0404275ZM0.242752 6.92875L5.24275 9.92875L5.75725 9.07125L0.757248 6.07125L0.242752 6.92875ZM5.07125 9.75725L8.07125 14.7572L8.92875 14.2428L5.92875 9.24275L5.07125 9.75725ZM8.95957 14.697L14.9596 0.69696L14.0404 0.30304L8.04043 14.303L8.95957 14.697ZM14.1464 0.146447L5.14645 9.14645L5.85355 9.85355L14.8536 0.853553L14.1464 0.146447Z" fill="black"/></svg>

<svg xmlns="http://www.w3.org/2000/svg" viewBox="0 0 15 15" fill="none"><path d="M14.5.5l.46.197a.5.5 0 00-.657-.657L14.5.5zm-14 6l-.197-.46a.5.5 0 00-.06.889L.5 6.5zm8 8l-.429.257a.5.5 0 00.889-.06L8.5 14.5zM14.303.04l-14 6 .394.92 14-6-.394-.92zM.243 6.93l5 3 .514-.858-5-3-.514.858zM5.07 9.757l3 5 .858-.514-3-5-.858.514zm3.889 4.94l6-14-.92-.394-6 14 .92.394zM14.146.147l-9 9 .708.707 9-9-.708-.708z" fill="currentColor"/></svg>
